X:1
T:Contredanse in F
T:Contredanse in F
T:K. 15h
T:W.A. Mozart
C:W. A. Mozart
%%score { ( 1 3 ) | 2 }
L:1/8
Q:1/4=170
M:2/4
K:F
V:1 treble nm="Piano" snm="Pno."
V:3 treble 
V:2 bass 
V:1
"^Contredanse\n" f2 a2 | c'4 | b2 ag | a4 | g2 f2 | e4 | f2 a2 | c'4 | b2 ag | a4 | g2 e2 | %11
 f4!fine! :: dfad | ^c2 A2 | def^g | a2 A_B | [Ac]2 a2 | [Bd]2 b2 | [GB]2 g2 | [FA]2 f2 | %20
 [Bg][Ge] [Ge][Ge] | [Ge]4 | [Fd]2 [E^c]2 | [Fd]4!D.C.! :| %24
V:2
 z4 | z4 | C,2 E,2 | F,4 | B,,2 =B,,2 | C,2 C,,2 | z4 | z4 | C,2 E,2 | F,4 | B,2 C2 | F,2 F,,2 :: %12
 F,2 D2 | A,^CEC | _B,2 B,2 | A,A,,A,G, | F,2 z2 | B,2 z2 | E,2 z2 | F,2 z2 | ^C,2 C,2 | ^C,4 | %22
 D,2 A,,2 | D,2 D,,2 :| %24
V:3
 x4 | F2 A2 | c4 | c2 BA | B2 A2 | G4 | x4 | F2 A2 | c4 | c2 BA | B2 G2 | A4 :: x4 | x4 | x4 | x4 | %16
 x4 | x4 | x4 | x4 | x4 | x4 | x4 | x4 :| %24

